X: 34919
T: Rockaway Beach
R: polka
M: 2/4
K: Dmajor
|:D>F Ad|BA d2|Ad fa|ed B/c/d|
D>F Ad|BA d2|BA dA|Bd FD:|
|:FA df|ef/e/ df|ef/e/ dA|Bd BA|
FA df|ef/e/ df|ef/e/ dA|Bd d2:|
|:dA de|fd af|ef/e/ dB|ef/e/ dB|
dA de|fd af|ef/e/ dA|Bd d2:|

